@stellar/design-system/src/assets/logos/albedo.svg

<svg width="21" height="24" viewBox="0 0 21 24" xmlns="http://www.w3.org/2000/svg">
<g clip-path="url(#clip0_1140_1883)">
<path d="M10.859 0.168518H9.87061L-0.135254 23.8189L-0.105348 23.8316H2.56472L4.56704 19.0988C8.72804 20.5013 13.2376 20.4779 17.3838 19.032L19.4144 23.8316H20.8349L20.8648 23.8189L10.8589 0.168518H10.859ZM10.8791 19.2399C8.85265 19.2395 6.83954 18.9124 4.91731 18.271L10.9895 3.91847L17.0349 18.2074C15.0546 18.8911 12.9741 19.2401 10.8791 19.2399V19.2399Z" fill="#0691B7"/>
</g>
<defs>
<clipPath id="clip0_1140_1883">
<rect width="21" height="24" fill="white"/>
</clipPath>
</defs>
</svg>

<svg xmlns="http://www.w3.org/2000/svg" width="21" height="24"><g clip-path="url(#a)"><path fill="#0691B7" d="M10.859.168H9.87L-.135 23.818l.03.013h2.67L4.567 19.1a19.758 19.758 0 0 0 12.817-.067l2.03 4.8h1.42l.03-.013L10.86.169Zm.02 19.072c-2.026 0-4.04-.328-5.962-.97L10.99 3.919l6.046 14.29a18.858 18.858 0 0 1-6.156 1.032Z"/></g><defs><clipPath id="a"><path d="M0 0h21v24H0z"/></clipPath></defs></svg>
